X:1
T:[ID 7-103]
T:[ID 7-103]
T:Bezeichnung standardisiert: Anglaise Angl. 28.
T:Urheber unbekannt Datum in der hier transkribierten schriftlichen Quelle: 1776 - 1791
C:Urheber unbekannt
C:Datum in der hier transkribierten schriftlichen Quelle: 1776 - 1791
L:1/8
M:2/4
K:D
V:1 treble 
V:1
 A, | D2 D>D | F>DF>D | A>AF>D | A,2 z a | g/f/e/f/ g/f/e/d/ | c/d/e/d/ c/B/A/G/ | %7
 [A,F]2 [Fd]>[Fd] | [Fd] z :: f | e>gf>a | c>ed>f | e>g f/a/f/d/ | A>AA>A, | D2 D>D | F>DF>A | %16
 [Fd] [Fd]>[Fd] | [Fd] z ::!p! A | [Ae]2 (FG) | A2 (FG) | (Adfd) | d2 (cA) | (ge)(ec) | d2 (fa) | %25
 (ge)(ec) | d2 z :| %27

